build/system/BackSolid.svg

<svg xmlns="http://www.w3.org/2000/svg" fill="none" viewBox="0 0 24 24" focusable="false"><path d="M0 0H24V24H0z"/><path fill="#74767B" fill-rule="evenodd" d="M12 21C16.9706 21 21 16.9706 21 12C21 7.02944 16.9706 3 12 3C7.02944 3 3 7.02944 3 12C3 16.9706 7.02944 21 12 21ZM10.4596 8.25967C10.7135 8.00583 10.7135 7.59427 10.4596 7.34043C10.2058 7.08659 9.79422 7.08659 9.54038 7.34043L6.54038 10.3404C6.28654 10.5943 6.28654 11.0058 6.54038 11.2597L9.54038 14.2597C9.79422 14.5135 10.2058 14.5135 10.4596 14.2597C10.7135 14.0058 10.7135 13.5943 10.4596 13.3404L8.56924 11.45L13 11.45C14.2979 11.45 15.35 12.5022 15.35 13.8L15.35 15.3C15.35 15.659 15.641 15.95 16 15.95C16.359 15.95 16.65 15.659 16.65 15.3L16.65 13.8C16.65 11.7842 15.0158 10.15 13 10.15L8.56924 10.15L10.4596 8.25967Z"/></svg>

<svg xmlns="http://www.w3.org/2000/svg" fill="none" viewBox="0 0 24 24" focusable="false"><path fill="#74767B" fill-rule="evenodd" d="M12 21a9 9 0 0 0 9-9c0-4.98-4.03-9-9-9-4.98 0-9 4.02-9 9 0 4.97 4.02 9 9 9M10.45 8.25c.26-.25.26-.66 0-.91a.63.63 0 0 0-.91 0l-3 3c-.26.25-.26.66 0 .91l3 3c.25.26.66.26.91 0 .26-.25.26-.66 0-.91l-1.89-1.89H13c1.29 0 2.35 1.05 2.35 2.35v1.5c0 .35.29.65.65.65.35 0 .64-.3.64-.65v-1.5c0-2.02-1.63-3.65-3.64-3.65H8.56z"/></svg>
